;Sliced by ideaMaker 4.0.1.4802, 2021-05-28 20:52:20 UTC-0700
;Dimension: 300.000 300.000 400.000 0.400
;Plate Shape: 0
;Origin Center: 0
;Extruder Offset #1: 25.000 0.000
;Filament Diameter #1: 1.750
;Filament Diameter #2: 1.750
;Filament Compensation #1: 90.00
;Filament Compensation #2: 90.00
;Filament Density #1: 1240.00
;Filament Density #2: 1240.00
;Bounding Box: 15.000 285.000 15.000 285.000 0.000 0.200
;Model Gap: 0.000
M221 T0 S90.00
M140 S60.00
M104 T0 S210.00
M109 T0 S210.00
T0
M190 S60.00
G28 ; home all axes
M420 S1; restore manual mesh
M117 Purge extruder
G92 E0 ; reset extruder
G1 Z1.0 F3000 ; move z up little to prevent scratching of surface
G1 X2 Y20 Z0.3 F5000.0 ; move to start-line position
G1 X2 Y200.0 Z0.3 F1500.0 E15 ; draw 1st line
G1 X2 Y200.0 Z0.4 F5000.0 ; move to side a little
G1 X2 Y20 Z0.4 F1500.0 E30 ; draw 2nd line
G92 E0 ; reset extruder
G1 Z1.0 F3000 ; move z up little to prevent scratching of surface
;end of Start GCode
;TOTAL_NUM: 1
;PRINTING_TIME: 0
;REMAINING_TIME: 994
;LAYER:0
;Z:0.200
;HEIGHT:0.200
M106 S0
;PRINTING: level_test.STL
;PRINTING_ID: 0
G1 F1500 E-1.0000
M204 S1500.00
G0 F7200 X43.460 Y43.460
G0 F900 Z0.200
M204 S800.00
;TYPE:WALL-INNER
;WIDTH:0.440
G1 F1200 E0.0000
G1 F1200 X16.540 Y43.460 E0.9849
G1 X16.540 Y16.540 E1.9698
G1 X43.460 Y16.540 E2.9547
G1 X43.460 Y43.460 E3.9396
M204 S1500.00
G0 F7200 X43.900 Y43.900
M204 S800.00
G1 F1200 X16.100 Y43.900 E4.9567
G1 X16.100 Y16.100 E5.9738
G1 X43.900 Y16.100 E6.9909
G1 X43.900 Y43.900 E8.0080
M204 S1500.00
G0 F7200 X44.340 Y44.340
M204 S800.00
G1 F1200 X15.660 Y44.340 E9.0573
G1 X15.660 Y15.660 E10.1066
G1 X44.340 Y15.660 E11.1558
G1 X44.340 Y44.340 E12.2051
G1 F1500 E11.2051
G1 F900 Z0.400
M204 S1500.00
G0 F7200 X44.780 Y44.780
M204 S800.00
;TYPE:WALL-OUTER
;WIDTH:0.440
G1 F900 Z0.200
G1 F1200 E12.2051
G1 F1200 X15.220 Y44.780 E13.2866
G1 X15.220 Y15.220 E14.3681
G1 X44.780 Y15.220 E15.4496
G1 X44.780 Y44.780 E16.5311
G1 F1500 E15.5311
G1 F900 Z0.400
M204 S1500.00
G0 F7200 X44.680 Y44.770
G0 X43.371 Y16.926
M204 S800.00
;TYPE:SOLID-FILL
;WIDTH:0.440
G1 F900 Z0.200
G1 F1200 E16.5311
G1 F1200 X43.074 Y16.628 E16.5465
M204 S1500.00
G0 F7200 X42.451 Y16.628
M204 S800.00
G1 F1200 X43.371 Y17.548 E16.5941
M204 S1500.00
G0 F7200 X43.371 Y18.170
M204 S800.00
G1 F1200 X41.829 Y16.628 E16.6739
M204 S1500.00
G0 F7200 X41.207 Y16.628
M204 S800.00
G1 F1200 X43.371 Y18.792 E16.7858
M204 S1500.00
G0 F7200 X43.371 Y19.415
M204 S800.00
G1 F1200 X40.585 Y16.628 E16.9300
M204 S1500.00
G0 F7200 X39.962 Y16.628
M204 S800.00
G1 F1200 X43.371 Y20.037 E17.1064
M204 S1500.00
G0 F7200 X43.371 Y20.659
M204 S800.00
G1 F1200 X39.340 Y16.628 E17.3150
M204 S1500.00
G0 F7200 X38.718 Y16.628
M204 S800.00
G1 F1200 X43.371 Y21.281 E17.5557
M204 S1500.00
G0 F7200 X43.371 Y21.904
M204 S800.00
G1 F1200 X38.096 Y16.628 E17.8287
M204 S1500.00
G0 F7200 X37.473 Y16.628
M204 S800.00
G1 F1200 X43.371 Y22.526 E18.1338
M204 S1500.00
G0 F7200 X43.371 Y23.148
M204 S800.00
G1 F1200 X36.851 Y16.628 E18.4712
M204 S1500.00
G0 F7200 X36.229 Y16.628
M204 S800.00
G1 F1200 X43.371 Y23.770 E18.8407
M204 S1500.00
G0 F7200 X43.371 Y24.393
M204 S800.00
G1 F1200 X35.607 Y16.628 E19.2424
M204 S1500.00
G0 F7200 X34.984 Y16.628
M204 S800.00
G1 F1200 X43.371 Y25.015 E19.6764
M204 S1500.00
G0 F7200 X43.371 Y25.637
M204 S800.00
G1 F1200 X34.362 Y16.628 E20.1425
M204 S1500.00
G0 F7200 X33.740 Y16.628
M204 S800.00
G1 F1200 X43.371 Y26.259 E20.6408
M204 S1500.00
G0 F7200 X43.371 Y26.882
M204 S800.00
G1 F1200 X33.118 Y16.628 E21.1714
M204 S1500.00
G0 F7200 X32.495 Y16.628
M204 S800.00
G1 F1200 X43.371 Y27.504 E21.7341
M204 S1500.00
G0 F7200 X43.371 Y28.126
M204 S800.00
G1 F1200 X31.873 Y16.628 E22.3290
M204 S1500.00
G0 F7200 X31.251 Y16.628
M204 S800.00
G1 F1200 X43.371 Y28.748 E22.9561
M204 S1500.00
G0 F7200 X43.371 Y29.371
M204 S800.00
G1 F1200 X30.629 Y16.628 E23.6154
M204 S1500.00
G0 F7200 X30.006 Y16.628
M204 S800.00
G1 F1200 X43.371 Y29.993 E24.3069
M204 S1500.00
G0 F7200 X43.371 Y30.615
M204 S800.00
G1 F1200 X29.384 Y16.628 E25.0306
M204 S1500.00
G0 F7200 X28.762 Y16.628
M204 S800.00
G1 F1200 X43.371 Y31.237 E25.7865
M204 S1500.00
G0 F7200 X43.371 Y31.860
M204 S800.00
G1 F1200 X28.140 Y16.628 E26.5746
M204 S1500.00
G0 F7200 X27.517 Y16.628
M204 S800.00
G1 F1200 X43.371 Y32.482 E27.3949
M204 S1500.00
G0 F7200 X43.371 Y33.104
M204 S800.00
G1 F1200 X26.895 Y16.628 E28.2474
M204 S1500.00
G0 F7200 X26.273 Y16.628
M204 S800.00
G1 F1200 X43.371 Y33.726 E29.1320
M204 S1500.00
G0 F7200 X43.371 Y34.349
M204 S800.00
G1 F1200 X25.651 Y16.628 E30.0489
M204 S1500.00
G0 F7200 X25.028 Y16.628
M204 S800.00
G1 F1200 X43.371 Y34.971 E30.9980
M204 S1500.00
G0 F7200 X43.371 Y35.593
M204 S800.00
G1 F1200 X24.406 Y16.628 E31.9792
M204 S1500.00
G0 F7200 X23.784 Y16.628
M204 S800.00
G1 F1200 X43.371 Y36.215 E32.9927
M204 S1500.00
G0 F7200 X43.371 Y36.838
M204 S800.00
G1 F1200 X23.161 Y16.628 E34.0384
M204 S1500.00
G0 F7200 X22.539 Y16.628
M204 S800.00
G1 F1200 X43.371 Y37.460 E35.1162
M204 S1500.00
G0 F7200 X43.371 Y38.082
M204 S800.00
G1 F1200 X21.917 Y16.628 E36.2263
M204 S1500.00
G0 F7200 X21.295 Y16.628
M204 S800.00
G1 F1200 X43.371 Y38.704 E37.3685
M204 S1500.00
G0 F7200 X43.371 Y39.327
M204 S800.00
G1 F1200 X20.672 Y16.628 E38.5429
M204 S1500.00
G0 F7200 X20.050 Y16.628
M204 S800.00
G1 F1200 X43.371 Y39.949 E39.7496
M204 S1500.00
G0 F7200 X43.371 Y40.571
M204 S800.00
G1 F1200 X19.428 Y16.628 E40.9884
M204 S1500.00
G0 F7200 X18.806 Y16.628
M204 S800.00
G1 F1200 X43.371 Y41.193 E42.2594
M204 S1500.00
G0 F7200 X43.371 Y41.816
M204 S800.00
G1 F1200 X18.183 Y16.628 E43.5627
M204 S1500.00
G0 F7200 X17.561 Y16.628
M204 S800.00
G1 F1200 X43.371 Y42.438 E44.8981
M204 S1500.00
G0 F7200 X43.371 Y43.060
M204 S800.00
G1 F1200 X16.939 Y16.628 E46.2657
M204 S1500.00
G0 F7200 X16.627 Y16.938
M204 S800.00
G1 F1200 X43.059 Y43.371 E47.6333
M204 S1500.00
G0 F7200 X42.437 Y43.371
M204 S800.00
G1 F1200 X16.627 Y17.560 E48.9688
M204 S1500.00
G0 F7200 X16.627 Y18.183
M204 S800.00
G1 F1200 X41.815 Y43.371 E50.2720
M204 S1500.00
G0 F7200 X41.193 Y43.371
M204 S800.00
G1 F1200 X16.627 Y18.805 E51.5431
M204 S1500.00
G0 F7200 X16.627 Y19.427
M204 S800.00
G1 F1200 X40.570 Y43.371 E52.7819
M204 S1500.00
G0 F7200 X39.948 Y43.371
M204 S800.00
G1 F1200 X16.627 Y20.050 E53.9886
M204 S1500.00
G0 F7200 X16.627 Y20.672
M204 S800.00
G1 F1200 X39.326 Y43.371 E55.1630
M204 S1500.00
G0 F7200 X38.704 Y43.371
M204 S800.00
G1 F1200 X16.627 Y21.294 E56.3053
M204 S1500.00
G0 F7200 X16.627 Y21.916
M204 S800.00
G1 F1200 X38.081 Y43.371 E57.4154
M204 S1500.00
G0 F7200 X37.459 Y43.371
M204 S800.00
G1 F1200 X16.627 Y22.539 E58.4933
M204 S1500.00
G0 F7200 X16.627 Y23.161
M204 S800.00
G1 F1200 X36.837 Y43.371 E59.5389
M204 S1500.00
G0 F7200 X36.215 Y43.371
M204 S800.00
G1 F1200 X16.627 Y23.783 E60.5524
M204 S1500.00
G0 F7200 X16.627 Y24.405
M204 S800.00
G1 F1200 X35.592 Y43.371 E61.5337
M204 S1500.00
G0 F7200 X34.970 Y43.371
M204 S800.00
G1 F1200 X16.627 Y25.028 E62.4828
M204 S1500.00
G0 F7200 X16.627 Y25.650
M204 S800.00
G1 F1200 X34.348 Y43.371 E63.3997
M204 S1500.00
G0 F7200 X33.726 Y43.371
M204 S800.00
G1 F1200 X16.627 Y26.272 E64.2844
M204 S1500.00
G0 F7200 X16.627 Y26.894
M204 S800.00
G1 F1200 X33.103 Y43.371 E65.1369
M204 S1500.00
G0 F7200 X32.481 Y43.371
M204 S800.00
G1 F1200 X16.627 Y27.517 E65.9572
M204 S1500.00
G0 F7200 X16.627 Y28.139
M204 S800.00
G1 F1200 X31.859 Y43.371 E66.7453
M204 S1500.00
G0 F7200 X31.237 Y43.371
M204 S800.00
G1 F1200 X16.627 Y28.761 E67.5012
M204 S1500.00
G0 F7200 X16.627 Y29.383
M204 S800.00
G1 F1200 X30.614 Y43.371 E68.2250
M204 S1500.00
G0 F7200 X29.992 Y43.371
M204 S800.00
G1 F1200 X16.627 Y30.006 E68.9165
M204 S1500.00
G0 F7200 X16.627 Y30.628
M204 S800.00
G1 F1200 X29.370 Y43.371 E69.5758
M204 S1500.00
G0 F7200 X28.748 Y43.371
M204 S800.00
G1 F1200 X16.627 Y31.250 E70.2030
M204 S1500.00
G0 F7200 X16.627 Y31.872
M204 S800.00
G1 F1200 X28.125 Y43.371 E70.7979
M204 S1500.00
G0 F7200 X27.503 Y43.371
M204 S800.00
G1 F1200 X16.627 Y32.495 E71.3606
M204 S1500.00
G0 F7200 X16.627 Y33.117
M204 S800.00
G1 F1200 X26.881 Y43.371 E71.8912
M204 S1500.00
G0 F7200 X26.259 Y43.371
M204 S800.00
G1 F1200 X16.627 Y33.739 E72.3895
M204 S1500.00
G0 F7200 X16.627 Y34.361
M204 S800.00
G1 F1200 X25.636 Y43.371 E72.8557
M204 S1500.00
G0 F7200 X25.014 Y43.371
M204 S800.00
G1 F1200 X16.627 Y34.984 E73.2896
M204 S1500.00
G0 F7200 X16.627 Y35.606
M204 S800.00
G1 F1200 X24.392 Y43.371 E73.6914
M204 S1500.00
G0 F7200 X23.770 Y43.371
M204 S800.00
G1 F1200 X16.627 Y36.228 E74.0610
M204 S1500.00
G0 F7200 X16.627 Y36.850
M204 S800.00
G1 F1200 X23.147 Y43.371 E74.3984
M204 S1500.00
G0 F7200 X22.525 Y43.371
M204 S800.00
G1 F1200 X16.627 Y37.473 E74.7035
M204 S1500.00
G0 F7200 X16.627 Y38.095
M204 S800.00
G1 F1200 X21.903 Y43.371 E74.9765
M204 S1500.00
G0 F7200 X21.281 Y43.371
M204 S800.00
G1 F1200 X16.627 Y38.717 E75.2173
M204 S1500.00
G0 F7200 X16.627 Y39.339
M204 S800.00
G1 F1200 X20.658 Y43.371 E75.4259
M204 S1500.00
G0 F7200 X20.036 Y43.371
M204 S800.00
G1 F1200 X16.627 Y39.962 E75.6023
M204 S1500.00
G0 F7200 X16.627 Y40.584
M204 S800.00
G1 F1200 X19.414 Y43.371 E75.7465
M204 S1500.00
G0 F7200 X18.792 Y43.371
M204 S800.00
G1 F1200 X16.627 Y41.206 E75.8585
M204 S1500.00
G0 F7200 X16.627 Y41.828
M204 S800.00
G1 F1200 X18.169 Y43.371 E75.9383
M204 S1500.00
G0 F7200 X17.547 Y43.371
M204 S800.00
G1 F1200 X16.627 Y42.451 E75.9859
M204 S1500.00
G0 F7200 X16.627 Y43.073
M204 S800.00
G1 F1200 X16.925 Y43.371 E76.0013
G1 F1500 E75.0013
G1 F900 Z0.400
M204 S1500.00
G0 F7200 X43.460 Y163.460
M204 S800.00
;TYPE:WALL-INNER
;WIDTH:0.440
G1 F900 Z0.200
G1 F1200 E76.0013
G1 F1200 X16.540 Y163.460 E76.9862
G1 X16.540 Y136.540 E77.9711
G1 X43.460 Y136.540 E78.9560
G1 X43.460 Y163.460 E79.9409
M204 S1500.00
G0 F7200 X43.900 Y163.900
M204 S800.00
G1 F1200 X16.100 Y163.900 E80.9580
G1 X16.100 Y136.100 E81.9751
G1 X43.900 Y136.100 E82.9922
G1 X43.900 Y163.900 E84.0093
M204 S1500.00
G0 F7200 X44.340 Y164.340
M204 S800.00
G1 F1200 X15.660 Y164.340 E85.0586
G1 X15.660 Y135.660 E86.1079
G1 X44.340 Y135.660 E87.1572
G1 X44.340 Y164.340 E88.2065
G1 F1500 E87.2065
G1 F900 Z0.400
M204 S1500.00
G0 F7200 X44.780 Y164.780
M204 S800.00
;TYPE:WALL-OUTER
;WIDTH:0.440
G1 F900 Z0.200
G1 F1200 E88.2065
G1 F1200 X15.220 Y164.780 E89.2880
G1 X15.220 Y135.220 E90.3695
G1 X44.780 Y135.220 E91.4509
G1 X44.780 Y164.780 E92.5324
G1 F1500 E91.5324
G1 F900 Z0.400
M204 S1500.00
G0 F7200 X44.680 Y164.770
G0 X43.372 Y137.021
M204 S800.00
;TYPE:SOLID-FILL
;WIDTH:0.440
G1 F900 Z0.200
G1 F1200 E92.5324
G1 F1200 X42.977 Y136.627 E92.5528
M204 S1500.00
G0 F7200 X42.355 Y136.627
M204 S800.00
G1 F1200 X43.372 Y137.643 E92.6054
M204 S1500.00
G0 F7200 X43.372 Y138.266
M204 S800.00
G1 F1200 X41.733 Y136.627 E92.6902
M204 S1500.00
G0 F7200 X41.111 Y136.627
M204 S800.00
G1 F1200 X43.372 Y138.888 E92.8072
M204 S1500.00
G0 F7200 X43.372 Y139.510
M204 S800.00
G1 F1200 X40.488 Y136.627 E92.9564
M204 S1500.00
G0 F7200 X39.866 Y136.627
M204 S800.00
G1 F1200 X43.372 Y140.133 E93.1378
M204 S1500.00
G0 F7200 X43.372 Y140.755
M204 S800.00
G1 F1200 X39.244 Y136.627 E93.3514
M204 S1500.00
G0 F7200 X38.622 Y136.627
M204 S800.00
G1 F1200 X43.372 Y141.377 E93.5972
M204 S1500.00
G0 F7200 X43.372 Y141.999
M204 S800.00
G1 F1200 X37.999 Y136.627 E93.8752
M204 S1500.00
G0 F7200 X37.377 Y136.627
M204 S800.00
G1 F1200 X43.372 Y142.622 E94.1853
M204 S1500.00
G0 F7200 X43.372 Y143.244
M204 S800.00
G1 F1200 X36.755 Y136.627 E94.5277
M204 S1500.00
G0 F7200 X36.133 Y136.627
M204 S800.00
G1 F1200 X43.372 Y143.866 E94.9023
M204 S1500.00
G0 F7200 X43.372 Y144.488
M204 S800.00
G1 F1200 X35.510 Y136.627 E95.3090
M204 S1500.00
G0 F7200 X34.888 Y136.627
M204 S800.00
G1 F1200 X43.372 Y145.111 E95.7480
M204 S1500.00
G0 F7200 X43.372 Y145.733
M204 S800.00
G1 F1200 X34.266 Y136.627 E96.2191
M204 S1500.00
G0 F7200 X33.644 Y136.627
M204 S800.00
G1 F1200 X43.372 Y146.355 E96.7225
M204 S1500.00
G0 F7200 X43.372 Y146.977
M204 S800.00
G1 F1200 X33.021 Y136.627 E97.2580
M204 S1500.00
G0 F7200 X32.399 Y136.627
M204 S800.00
G1 F1200 X43.372 Y147.600 E97.8258
M204 S1500.00
G0 F7200 X43.372 Y148.222
M204 S800.00
G1 F1200 X31.777 Y136.627 E98.4257
M204 S1500.00
G0 F7200 X31.155 Y136.627
M204 S800.00
G1 F1200 X43.372 Y148.844 E99.0578
M204 S1500.00
G0 F7200 X43.372 Y149.466
M204 S800.00
G1 F1200 X30.532 Y136.627 E99.7221
M204 S1500.00
G0 F7200 X29.910 Y136.627
M204 S800.00
G1 F1200 X43.372 Y150.089 E100.4187
M204 S1500.00
G0 F7200 X43.372 Y150.711
M204 S800.00
G1 F1200 X29.288 Y136.627 E101.1474
M204 S1500.00
G0 F7200 X28.666 Y136.627
M204 S800.00
G1 F1200 X43.372 Y151.333 E101.9083
M204 S1500.00
G0 F7200 X43.372 Y151.955
M204 S800.00
G1 F1200 X28.043 Y136.627 E102.7014
M204 S1500.00
G0 F7200 X27.421 Y136.627
M204 S800.00
G1 F1200 X43.372 Y152.578 E103.5267
M204 S1500.00
G0 F7200 X43.372 Y153.200
M204 S800.00
G1 F1200 X26.799 Y136.627 E104.3842
M204 S1500.00
G0 F7200 X26.177 Y136.627
M204 S800.00
G1 F1200 X43.372 Y153.822 E105.2739
M204 S1500.00
G0 F7200 X43.372 Y154.444
M204 S800.00
G1 F1200 X25.554 Y136.627 E106.1958
M204 S1500.00
G0 F7200 X24.932 Y136.627
M204 S800.00
G1 F1200 X43.372 Y155.067 E107.1499
M204 S1500.00
G0 F7200 X43.372 Y155.689
M204 S800.00
G1 F1200 X24.310 Y136.627 E108.1361
M204 S1500.00
G0 F7200 X23.688 Y136.627
M204 S800.00
G1 F1200 X43.372 Y156.311 E109.1546
M204 S1500.00
G0 F7200 X43.372 Y156.933
M204 S800.00
G1 F1200 X23.065 Y136.627 E110.2053
M204 S1500.00
G0 F7200 X22.443 Y136.627
M204 S800.00
G1 F1200 X43.372 Y157.556 E111.2882
M204 S1500.00
G0 F7200 X43.372 Y158.178
M204 S800.00
G1 F1200 X21.821 Y136.627 E112.4032
M204 S1500.00
G0 F7200 X21.199 Y136.627
M204 S800.00
G1 F1200 X43.372 Y158.800 E113.5505
M204 S1500.00
G0 F7200 X43.372 Y159.422
M204 S800.00
G1 F1200 X20.576 Y136.627 E114.7299
M204 S1500.00
G0 F7200 X19.954 Y136.627
M204 S800.00
G1 F1200 X43.372 Y160.045 E115.9416
M204 S1500.00
G0 F7200 X43.372 Y160.667
M204 S800.00
G1 F1200 X19.332 Y136.627 E117.1854
M204 S1500.00
G0 F7200 X18.710 Y136.627
M204 S800.00
G1 F1200 X43.372 Y161.289 E118.4614
M204 S1500.00
G0 F7200 X43.372 Y161.911
M204 S800.00
G1 F1200 X18.087 Y136.627 E119.7697
M204 S1500.00
G0 F7200 X17.465 Y136.627
M204 S800.00
G1 F1200 X43.372 Y162.534 E121.1101
M204 S1500.00
G0 F7200 X43.372 Y163.156
M204 S800.00
G1 F1200 X16.843 Y136.627 E122.4828
M204 S1500.00
G0 F7200 X16.628 Y137.034
M204 S800.00
G1 F1200 X42.965 Y163.371 E123.8454
M204 S1500.00
G0 F7200 X42.342 Y163.371
M204 S800.00
G1 F1200 X16.628 Y137.656 E125.1759
M204 S1500.00
G0 F7200 X16.628 Y138.278
M204 S800.00
G1 F1200 X41.720 Y163.371 E126.4742
M204 S1500.00
G0 F7200 X41.098 Y163.371
M204 S800.00
G1 F1200 X16.628 Y138.901 E127.7403
M204 S1500.00
G0 F7200 X16.628 Y139.523
M204 S800.00
G1 F1200 X40.476 Y163.371 E128.9742
M204 S1500.00
G0 F7200 X39.853 Y163.371
M204 S800.00
G1 F1200 X16.628 Y140.145 E130.1759
M204 S1500.00
G0 F7200 X16.628 Y140.767
M204 S800.00
G1 F1200 X39.231 Y163.371 E131.3455
M204 S1500.00
G0 F7200 X38.609 Y163.371
M204 S800.00
G1 F1200 X16.628 Y141.390 E132.4828
M204 S1500.00
G0 F7200 X16.628 Y142.012
M204 S800.00
G1 F1200 X37.987 Y163.371 E133.5879
M204 S1500.00
G0 F7200 X37.364 Y163.371
M204 S800.00
G1 F1200 X16.628 Y142.634 E134.6608
M204 S1500.00
G0 F7200 X16.628 Y143.257
M204 S800.00
G1 F1200 X36.742 Y163.371 E135.7015
M204 S1500.00
G0 F7200 X36.120 Y163.371
